X: 3
T: Saint Anne's
R: reel
M: 4/4
L: 1/8
K: Dmaj
:A2|f2fg fedB|A2FG AFAd|BGGG G2FG|BAAF A2d2|
f2fg fedB|A2FG AFAd|BGBd cdec|1d2f2 d2:ag|
fdfa fdfa|aggf g2gf|edcB ABce|baa^g a2a=g|
fdfa fdfa|aggf g2gf|edcB ABcd|fdec d2:


Tune 103	Setting 12665

